X:3807
T:Danza (CT 175)
R:Danza
C:Tradicional
S:Música Tradicional Asturiana, (C) Tello & Tito. Asturies, 2001.
S:http://pagina.de/MusTradAst <telloytito@asturies.org>
N:Danza, transcrita en Cabañaquinta, ayuntamiento de Ayer.
N:Intervienen personas de ambos sexos, contstando al conductor de la danza con el invariable estribillo transcrito.
N:Se efectúa esta danza preferiblemente en la noche que antecede a la festividad de San Juan.
O:Cabañaquinta (Ayer)
A:Asturies
Z:Cancioneru de Torner 175
M:6/8
L:1/8
Q:3/8=80
W:"Solo"
W:-¡Señor San Juan!
W:Ya en la foguera
W:nun hai que quemar.
W:
W:"Coro"
W:-Viva la danza
W:y los que en ella están,
W:¡Señor San Juan!
W:
W:"Solo"
W:-¡Señor San Juan!
W:Ya les estrelles
W:a metese van.
W:
W:"Coro"
W:-Viva la danza
W:y los que en ella están,
W:¡Señor San Juan!
K:G
"Solo"
G>GA|B6-|B2 z G>GA|B>A(B/>d/) c>BA|B6-|B2 z
"Coro"
G>GA|B>A(B/>d/) c>BA|G3 A>GF|G6-|G2 z :||


